**kern	**kern	**dynam
*part1	*part1	*part1
*staff2	*staff1	*
*I"Piano	*	*
*clefF4	*clefG2	*
*k[f#c#g#]	*k[f#c#g#]	*
=1	=1	=1
(8B^^L 8a	(8cc#^^L 8ee	mf
8c#'~J)	8aa'~J)	.
(8aL	(8cc#L 8ee	p
8e	8ff#	.
8a	8cc# 8ee	<
8eJ	8ff#J	.
=	=	=
8aL	8cc#L 8ee	.
8eJ	8ff#J	.
8aL	8cc#L 8ee	.
8e	8ff#	.
8a	8cc# 8ee	.
8eJ)	8ff#J)	.
=	=	=
(8BL 8a	(8cc#L 8ee	[ mf
8c#'~J)	8aa'~J)	.
(8aL	(8cc#L 8ee	p
8e	8ff#	.
8a	8cc# 8ee	.
8eJ	8ff#J	.
=	=	=
8aL	8cc#L 8ee	.
8e	8ff#	.
8a	8cc# 8ee	.
8eJ	8ff#J	.
!	!LO:TX:b:i:t=cresc.	!
8aL	8cc#L 8ee	.
8eJ)	8ff#J)	.
=	=	=
(8BL 8a	(8cc#L 8ee	.
8c#J)	8aaJ)	.
(8aL	(8cc#L 8ee	.
8e	8ff#	.
8a	8cc# 8ee	.
8eJ)	8ff#J)	.
=	=	=
(8BL 8a	(8cc#L 8ee	.
8c#J)	8aaJ)	.
(8aL	(8cc#L 8ee	.
8e	8ff#	.
8a	8cc# 8ee	.
8eJ)	8ff#J)	.
=	=	=
(8BL 8a	(8cc#L 8ee	.
8c#J)	8aaJ)	.
(8aL	(8cc#L 8ee	.
8e	8ff#	.
8a	8cc# 8ee	.
8eJ)	8ff#J)	.
=	=	=
*-	*-	*-
!!!system-decoration: {(s1,s2)}
